packages/react/src/components/base/Icon/assets/icon-moped.svg

<svg width="24" height="24" viewBox="0 0 24 24" xmlns="http://www.w3.org/2000/svg" fill="currentColor"> <g clip-path="url(#clip0_2076_2405)"> <path d="M19.8746 12.375C19.7603 12.375 19.6468 12.3806 19.5353 12.39L16.4284 4.10531C16.348 3.89076 16.204 3.70587 16.0157 3.57536C15.8274 3.44485 15.6037 3.37495 15.3746 3.375H12.3746C12.0763 3.375 11.7901 3.49353 11.5791 3.7045C11.3682 3.91548 11.2496 4.20163 11.2496 4.5C11.2496 4.79837 11.3682 5.08452 11.5791 5.2955C11.7901 5.50647 12.0763 5.625 12.3746 5.625H14.5946L17.4287 13.1813C16.8012 13.6442 16.3168 14.2745 16.0309 15H13.2934L11.1784 9.35531C11.098 9.14076 10.954 8.95587 10.7657 8.82536C10.5774 8.69485 10.3537 8.62495 10.1246 8.625H2.62463C2.32627 8.625 2.04012 8.74353 1.82914 8.9545C1.61816 9.16548 1.49963 9.45163 1.49963 9.75C1.49963 10.0484 1.61816 10.3345 1.82914 10.5455C2.04012 10.7565 2.32627 10.875 2.62463 10.875H2.99963V11.1487C2.09494 11.6277 1.33773 12.344 0.809213 13.2206C0.280699 14.0973 0.000831656 15.1013 -0.000366211 16.125C-0.000366211 16.4234 0.11816 16.7095 0.329139 16.9205C0.540117 17.1315 0.826265 17.25 1.12463 17.25H1.56901C1.74494 18.1971 2.24681 19.0528 2.98758 19.6687C3.72835 20.2845 4.6613 20.6217 5.62463 20.6217C6.58796 20.6217 7.52091 20.2845 8.26168 19.6687C9.00246 19.0528 9.50433 18.1971 9.68026 17.25H15.819C15.9615 18.0207 16.3207 18.7349 16.8544 19.3089C17.3881 19.8829 18.0743 20.2929 18.8326 20.4911C19.5909 20.6892 20.39 20.6671 21.1363 20.4275C21.8825 20.1879 22.5451 19.7407 23.0464 19.1381C23.5476 18.5356 23.8669 17.8027 23.9667 17.0253C24.0665 16.2479 23.9427 15.4581 23.6099 14.7485C23.2772 14.0389 22.7491 13.4388 22.0875 13.0184C21.426 12.5981 20.6584 12.3749 19.8746 12.375ZM4.49963 12.9422C4.71907 12.8646 4.90904 12.7209 5.04336 12.5308C5.17769 12.3407 5.24976 12.1137 5.24963 11.8809V10.875H9.34463L10.8915 15H2.44276C2.61042 14.5253 2.88216 14.0941 3.23806 13.7381C3.59396 13.382 4.02501 13.1101 4.49963 12.9422ZM5.62463 18.375C5.25997 18.3748 4.90327 18.2683 4.59822 18.0685C4.29316 17.8687 4.053 17.5842 3.90713 17.25H7.34213C7.19627 17.5842 6.9561 17.8687 6.65105 18.0685C6.346 18.2683 5.9893 18.3748 5.62463 18.375ZM19.8746 18.375C19.5038 18.375 19.1413 18.265 18.8329 18.059C18.5246 17.853 18.2843 17.5601 18.1424 17.2175C18.0004 16.8749 17.9633 16.4979 18.0357 16.1342C18.108 15.7705 18.2866 15.4364 18.5488 15.1742C18.811 14.912 19.1451 14.7334 19.5088 14.661C19.8726 14.5887 20.2496 14.6258 20.5922 14.7677C20.9348 14.9096 21.2276 15.15 21.4336 15.4583C21.6397 15.7666 21.7496 16.1292 21.7496 16.5C21.7496 16.9973 21.5521 17.4742 21.2005 17.8258C20.8488 18.1775 20.3719 18.375 19.8746 18.375Z"/> </g> <defs> <clipPath id="clip0_2076_2405"> <rect width="24" height="24"/> </clipPath> </defs> </svg>

<svg viewBox="0 0 24 24" xmlns="http://www.w3.org/2000/svg" aria-hidden="true" fill="currentColor"><g clip-path="url(#a)"><path d="M19.875 12.375q-.172 0-.34.015l-3.107-8.285a1.125 1.125 0 0 0-1.053-.73h-3a1.125 1.125 0 0 0 0 2.25h2.22l2.834 7.556A4.15 4.15 0 0 0 16.03 15h-2.738l-2.115-5.645a1.125 1.125 0 0 0-1.053-.73h-7.5a1.125 1.125 0 0 0 0 2.25H3v.274a5.64 5.64 0 0 0-3 4.976 1.125 1.125 0 0 0 1.125 1.125h.444a4.125 4.125 0 0 0 8.111 0h6.139a4.125 4.125 0 1 0 4.056-4.875M4.5 12.942a1.125 1.125 0 0 0 .75-1.061v-1.006h4.095L10.892 15h-8.45A3.37 3.37 0 0 1 4.5 12.942m1.125 5.433a1.88 1.88 0 0 1-1.718-1.125h3.435a1.88 1.88 0 0 1-1.717 1.125m14.25 0a1.875 1.875 0 1 1 0-3.751 1.875 1.875 0 0 1 0 3.751"/></g><defs><clipPath id="a"><path d="M0 0h24v24H0z"/></clipPath></defs></svg>
